image/icon2.svg

<svg fill="none" height="24" viewBox="0 0 24 24" width="24" xmlns="http://www.w3.org/2000/svg"><g fill="#1e1e1e"><path d="m12 22.5c-5.79899 0-10.5-4.701-10.5-10.5 0-5.79899 4.70101-10.5 10.5-10.5 5.799 0 10.5 4.70101 10.5 10.5 0 5.799-4.701 10.5-10.5 10.5zm0 1.5c6.6274 0 12-5.3726 12-12 0-6.62742-5.3726-12-12-12-6.62742 0-12 5.37258-12 12 0 6.6274 5.37258 12 12 12z"/><path d="m6.42719 14.3508c.35855-.2074.81734-.0849 1.02475.2737.90888 1.5711 2.60576 2.6255 4.54806 2.6255s3.6393-1.0544 4.5481-2.6255c.2075-.3586.6662-.4811 1.0248-.2737.3585.2074.4811.6662.2737 1.0247-1.166 2.0157-3.3472 3.3745-5.8466 3.3745-2.49936 0-4.68049-1.3588-5.84647-3.3745-.20741-.3585-.08489-.8173.27366-1.0247z"/><path d="m10.5 9.75c0 1.2426-.67157 2.25-1.5 2.25s-1.5-1.0074-1.5-2.25c0-1.24264.67157-2.25 1.5-2.25s1.5 1.00736 1.5 2.25z"/><path d="m16.5 9.75c0 1.2426-.6716 2.25-1.5 2.25s-1.5-1.0074-1.5-2.25c0-1.24264.6716-2.25 1.5-2.25s1.5 1.00736 1.5 2.25z"/></g></svg>

<svg width="24" height="24" viewBox="0 0 24 24" fill="none" xmlns="http://www.w3.org/2000/svg">
<path d="M12 22.5C6.20101 22.5 1.5 17.799 1.5 12C1.5 6.20101 6.20101 1.5 12 1.5C17.799 1.5 22.5 6.20101 22.5 12C22.5 17.799 17.799 22.5 12 22.5ZM12 24C18.6274 24 24 18.6274 24 12C24 5.37258 18.6274 0 12 0C5.37258 0 0 5.37258 0 12C0 18.6274 5.37258 24 12 24Z" fill="#1E1E1E"/>
<path d="M6.42719 14.3508C6.78574 14.1434 7.24453 14.2659 7.45194 14.6245C8.36082 16.1956 10.0577 17.25 12 17.25C13.9423 17.25 15.6393 16.1956 16.5481 14.6245C16.7556 14.2659 17.2143 14.1434 17.5729 14.3508C17.9314 14.5582 18.054 15.017 17.8466 15.3755C16.6806 17.3912 14.4994 18.75 12 18.75C9.50064 18.75 7.31951 17.3912 6.15353 15.3755C5.94612 15.017 6.06864 14.5582 6.42719 14.3508Z" fill="#1E1E1E"/>
<path d="M10.5 9.75C10.5 10.9926 9.82843 12 9 12C8.17157 12 7.5 10.9926 7.5 9.75C7.5 8.50736 8.17157 7.5 9 7.5C9.82843 7.5 10.5 8.50736 10.5 9.75Z" fill="#1E1E1E"/>
<path d="M16.5 9.75C16.5 10.9926 15.8284 12 15 12C14.1716 12 13.5 10.9926 13.5 9.75C13.5 8.50736 14.1716 7.5 15 7.5C15.8284 7.5 16.5 8.50736 16.5 9.75Z" fill="#1E1E1E"/>
</svg>
